X: 1
T:The Boston -- Reel
M:2/4
L:1/16
R:reel
B:Ryan's Mammoth Collection
Z:Contributed by Ray Davies,  ray:davies99.freeserve.co.uk
K:F
u(AB)|c2(cA) FAcf|ebgf fefd|c2(cA) FAcf|ebge f2(AB)|
c2(cA) FAcf|ebge fefd|c2(cA) FAcf|ebge f2::
Ka2|ac'fa gbeg|cegf fedc|ac'fa gbeg|cege f2(cf)|
ac'fa gbeg|cegf fcdB|AFBG cAdB|Gbge f2:|
